X:775
T:Loch Leven #1
C:Joe Buchanan's Scottish Tome - Page 532.1
I:532 1
Z:Carl Allison
R:Slow Air
L:1/4
M:3/4
K:G
D | "G"(D>E G) | "Bm"(B>A B) | "Am"(A>G E) | "G"G2 d | "C"(e>d e) | "G"(d>B G) | "D7"A3 | "G"(B2 d) |
"C"(e>d e) | "G"(d>B G) | "C"(A G) E | "G"G A | "G"(B d B) | "D7"(A B A) | "G"G3 | "G"G2 :|

